X: 17378
T: High Road To Fort Augustus
R: reel
M: 4/4
K: Bminor
F|c,FF^G A2 AF|A,>A, E2 CA,A,E|c,FF^G A2 Ac|AFEC B,/B,/B, A2|
c,FF^G A2 AF|A,A, E2 CA,A,E|c,FF^G A2 Ac|AFEC B,/B,/B, A2
BFBc dBFd|cAeA cAAc|BFBc dBFd|caec B/B/B f2|
def^g agfa|efde cAAa|fdec dBcA|FAEC B,/B,/B, F2||

